X: 1360
T: Mest Oldu Gönül
C: Şerif İçli
O: Turkey
F: http://compmusic.upf.edu/node/140
N: karcigar--sarki--kapali_curcuna--mest_oldu--serif_icli
N: makam= karcigar
N: form= sarki
N: usul= kapali_curcuna = 10/8
M: 10/8
L: 1/16
K: C _2/4B _3/4e ^3/4f 
Q: 1/4=204
%%MIDI tuningsystem comma53
G4 c2B2 A2B2 c2d4c2  | d2e2 f4 e2e2 d2d4z2  | \
w:  ARANAĞME  |   | 
d2c2 d2e2 f2g2 a2_b2 a2g2  | 
w:   | 
a2c'2 _b2a2 g2g2 f2g4z2  | g6g4g2 f2g4z2  | \
w:   |   | 
c6c4c2 B2c4z2  | 
w:   | 
B8-B2B2 A2c2 B2A2  | A16-A4  | G4 c2B2 A2B2 c2d4c2  | \
w:   |   |  ARANAĞME  | 
d2e2 f4 e2e2 d2d4z2  | 
w:   | 
d2c2 d2e2 f2g2 a2_b2 a2g2  | a2c'2 _b2a2 g2g2 f2g4z2  | \
w:   |   | 
g6g4g2 f2g4z2  | 
w:   | 
c6c4c2 B2c4z2  | B8-B2B2 A2c2 B2A2  | A16-A4  | \
w:   |   |   | 
e2d2 c2B2 c2d2 e2f2 d2c2  | 
w:  Mest_ *  *  *  *  ol  | 
c4 B2B2 A2A2 G2A4z2  | c6d4d2 c2{c}B3AG2  | \
w:  du  *  gö *  nül   |  göz le ri *  *  ni   | 
A2B2 c2d2 e2e2 d2c2 B2d2  | 
w:  gör *  *  dü *  ğüm  *  ak  | 
c6c12z2  | d4 e2f2 g2g2 f2e2 {f}e2d2  | d16-d4  | \
w:  şam    |  gör *  dü *  ğüm  *  ak  |  şam    | 
d4 _1/4e2d2 c2B2 A2A4z2  | 
w:  SAZ  | 
e2d2 c2B2 c2d2 e2f2 d2c2  | c4 B2B2 A2A2 G2A4z2  | \
w:  Mest_ *  *  *  *  ol  |  du  *  gö *  nül   | 
c6d4d2 c2{c}B3AG2  | 
w:  göz le ri *  *  ni   | 
A2B2 c2d2 e2e2 d2c2 B2d2  | c6c12z2  | \
w:  gör *  *  dü *  ğüm  *  ak  |  şam    | 
d4 e2f2 g2g2 f2e2 {f}e2d2  | 
w:  gör *  dü *  ğüm  *  ak  | 
d16-d4  | d4 e2d2 c2f2 {g}f2{a}g4z2  | \
w:  şam    |  SAZ  | 
d2e2 f2g2 a2ag gfg6  | f6g4f2 e2d6  | 
w:  Öm *  *  *  *  rüm   |  se nin  aş  | 
e2d2 c2d2 e2e2 d2c2 B2c2  | d6d2 g2f2 e2d2 c2B2  | \
w:  kın *  *  la  *  he *  lâk   |  ol sa  *  da  *  yan  | 
c12 B2B2 A2G2  | 
w:  mam    | 
e6e2 f2d2 c2B2 {c}B2A2  | A16-A4  | d4 e2d2 c2f2 {g}f2{a}g4z2  | \
w:  ol sa  *  da  *  yan  |  mam    |  SAZ  | 
d2e2 f2g2 a2ag gfg6  | 
w:  Öm *  *  *  *  rüm   | 
f6g4f2 e2d6  | e2d2 c2d2 e2e2 d2c2 B2c2  | \
w:  se nin  aş  |  kın *  *  la  *  he *  lâk   | 
d6d2 g2f2 e2d2 c2B2  | 
w:  ol sa  *  da  *  yan  | 
c12 B2B2 A2G2  | e6e2 f2d2 c2B2 {c}B2A2  | A16-A4  | \
w:  mam    |  ol sa  *  da  *  yan  |  mam    | 
d4 _b2a2 g2f2 g2a4z2  | 
w:  SAZ  | 
g6a4a2 f2g2 e2d2  | c4 B2B2 A2A2 G2A4z2  | \
w:  Zin *  dan   |  ke *  si *  lir   | 
A2B2 c2d2 e2f2 a2g4z2  | 
w:  her  *  *  bir  *  u *  fuk   | 
g6a4_b2 a2g4f2  | g8-g2g2 =f2f4_1/4e2  | \
w:  sen den  u *  zak  |  sam    | 
g2=f2 _1/4e2g4g2 f2f4e2  | _1/4e18z2  | 
w:  sen *  *  den  u *  zak  |  sam    | 
a4 _b2a2 g2f2 g2a4z2  | g6a4a2 b2c'2 b2a2  | \
w:  SAZ  |  Zin *  dan   | 
a2g2 _b2b2 a2a2 g2g2 f2e2  | 
w:  ke *  *  si *  lir   | 
f6g4f2 e2d6  | d6_2/4e4e2 d2c2 B2d2  | c16-c4  | \
w:  her  bir  u *  fuk   |  sen den  u *  zak  |  sam    | 
d4 e2f2 g2g2 f2e4d2  | 
w:  sen *  den  *  u *  zak  | 
d16-d4  | d4 e2d2 c2f2 {g}f2{a}g4z2  | \
w:  sam    |  SAZ  | 
d2e2 f2g2 a2ag gfg6  | f6g4f2 e2d6  | 
w:  Öm *  *  *  *  rüm   |  se nin  aş  | 
e2d2 c2d2 e2e2 d2c2 B2c2  | d6d2 g2f2 e2d2 c2B2  | \
w:  kın *  *  la  *  he *  lâk   |  ol sa  *  da  *  yan  | 
c12 B2B2 A2G2  | 
w:  mam    | 
e6e2 f2d2 c2B2 {c}B2A2  | A16-A4  | |


